X: 23475
T: Levi Beaulieu
R: reel
M: 4/4
K: Amajor
|:fed|c2A2 AcBA|FBAF E4|BABc dB~B2|ABBA dfed|
c2A2 AcBA|FBAF E4|BABc dBed|c2A2 A:|
|:BBA|a2ab afed|cAce a=gef|~=g2fa ged=c|B=GBd =g2 (3efg|
a3a- afed|cAce a2 e2|efec dBed|c2A2 A:|

